X:136
T:Fort chos'oiatz
C:Gaucelm Faidit
O:~1170-~1230?
M:3/4
L:1/4
K:C
%%continueall 1
%%maxshrink 0.4
A2A | A2_B | A(G>F) | (GA/"(Bb)"B/)A | (G2F) | (ED)z |
A2G | G2F | (ED)E | (F/E/) (ED/C/) | D2E | E2z |
E2F | G(E>D) | E(F>E) | (ED/C/)D | D2C | C2z |
zGG | (A/B/) cA | F(G/A/B) | A2F | (G>AG) | (DE)z |
zGA | (GF/E/ D/E/) | E/D/ EA | BGc | (B/c/ B A/G/) |
(AG/F/ E/)z/ | z(FE) | D(D/E/)G | AD2 | (E>DC) |
B,>(CD) | D2(E/C/) | C2z | (A>G F/E/) | (E/F/G/F/D) |
EE2 | (E>D)C | (D2C) | (CB,)z | zF2 | FF2 |
(FE/D/)E | G(G/A/B) | A(GF/E/) | (F/E/D)z | zAA |
G(A//B//c//B//G) | EC(D/E/) | (G>FE) | (F>ED) | D2z |]




%%header "$P0	 $IR 	$P1"
%%footer $D - Éditions Galouvielle - 2009 - À usage librement privé dans le cadre familial

